X: 16137
T: Green Grow The Rushes
R: barndance
M: 4/4
K: Gmajor
M:2/4
|:G2 GA|BG G2|AB cd|eA A2|
B/c/d ec|Bc dB|Ac BA|1 GE E2:|2 BG G2||
|:g>f gf|ed d2|ea ag|f/e/d e2|
g>f gf|ed BG|Ac BA|1 GE E2:|2 BG G2||

